src/topics/icons/play.svg

<svg height="266" preserveAspectRatio="xMidYMid" viewBox="0 0 512 266" width="512" xmlns="http://www.w3.org/2000/svg"><path d="m7.5326226 14.6285714 6.7684435-6.76844347c10.3710021-10.26183369 27.2921109-9.60682303 36.7897655 1.41918977l93.6665244 109.1684433c8.187633 9.497655 8.078465 23.580384-.218337 32.96887l-93.339019 105.784222c-9.606823 10.807676-26.3095949 11.353518-36.5714286 1.091684l-6.76844347-6.768443c-9.17014925-9.170149-9.82515991-23.798721-1.52835821-33.842218l55.89424308-67.029424c7.641791-9.170149 7.7509595-22.379531.3275053-31.768017l-56.76759059-70.9594883c-8.07846482-9.8251599-7.31428572-24.2353945 1.74669509-33.2963753z" fill="#92d13d"/><g fill="#49691f"><path d="m62.1168443 150.870789-55.89424302 67.029424c-8.29680171 9.934329-7.64179105 24.672068 1.52835821 33.842218l6.76844351 6.768443c10.2618337 10.261834 26.9646055 9.715992 36.5714286-1.091684l20.196162-22.925373c7.641791-15.065246 11.8993603-32.095523 11.8993603-50.108316 0-22.270362-6.5501066-42.903198-17.6852878-60.260981 4.1484009 8.515139 3.0567164 19.104478-3.3842218 26.746269z"/><path d="m192.791471 214.515991h-21.72452v-126.3078887h21.72452v13.2093817c3.056717-8.8426439 14.082729-15.1744136 29.147975-15.1744136 12.881876 0 23.689552 4.5850746 32.423027 13.7552238 8.842644 9.0609808 13.209382 20.3053308 13.209382 33.8422178s-4.366738 24.781236-13.209382 34.060554c-8.733475 9.060981-19.541151 13.536887-32.423027 13.536887-15.065246 0-26.091258-6.33177-29.147975-15.174414zm6.33177-100.544136c-5.240085 5.240085-7.969296 12.008529-7.969296 19.977825 0 7.969297 2.729211 14.628572 7.969296 19.977825 5.458422 5.240086 12.117697 7.969297 19.977825 7.969297s14.082729-2.729211 19.213646-7.969297c5.240085-5.240085 7.75096-12.008528 7.75096-19.977825 0-7.969296-2.510875-14.628571-7.75096-19.977825-5.021748-5.240085-11.462686-7.969296-19.213646-7.969296-7.750959 0-14.519403 2.729211-19.977825 7.969296zm75.981237-60.6976546h21.72452v96.3957356c0 8.842644 2.947548 12.663539 10.916844 12.663539 2.510874 0 4.694243-.218336 6.550107-.764179v19.431983c-2.510874.764179-6.004265 1.091685-10.371002 1.091685-19.213646 0-28.820469-9.82516-28.820469-29.584648zm112.771002 48.1432836v-13.2093817h21.72452v63.7543707c0 7.75096 1.855864 10.698508 6.659275 10.698508 1.310021 0 2.947548-.218337 4.585075-.327506v17.57612c-2.401706.873347-6.004265 1.41919-10.698508 1.41919-5.240085 0-9.388486-.873348-12.663539-2.947548-4.039233-2.729211-6.550107-6.33177-7.423454-11.026013-6.33177 9.606823-16.811941 14.301066-31.331344 14.301066-12.881876 0-23.689552-4.475906-32.641364-13.755224-8.733476-9.279318-13.100213-20.523667-13.100213-34.060554s4.366737-24.781237 13.100213-33.8422178c8.842644-9.2793177 19.759488-13.7552238 32.641364-13.7552238 14.628572 0 25.654585 6.5501066 29.147975 15.1744136zm-6.550107 52.400853c5.458422-5.240085 8.187633-12.008529 8.187633-19.977825 0-7.969297-2.729211-14.628572-8.187633-19.977825-5.240085-5.240086-12.008529-7.969297-19.759488-7.969297-7.75096 0-14.082729 2.729211-19.431983 7.969297-5.021748 5.240085-7.641791 12.008528-7.641791 19.977825 0 7.969296 2.510874 14.628571 7.641791 19.977825 5.240085 5.240085 11.571855 7.969296 19.431983 7.969296s14.519403-2.729211 19.759488-7.969296zm47.051599 43.994883c2.729211.873347 6.113433 1.419189 10.152666 1.419189 3.49339 0 6.004264-.764179 7.969296-1.965032 1.965032-1.200852 3.820895-4.039232 5.240085-7.750959l2.401706-6.550107-38.208955-94.7582087h21.833688l26.855438 68.8852877 25.21791-68.8852877h21.942857l-40.938166 106.2208957c-2.729211 7.095949-6.004265 12.554371-9.82516 16.266098-5.458422 5.021748-12.66354 7.641791-21.942857 7.641791-4.039233 0-7.641791-.545842-10.698508-1.41919z"/></g></svg>

<?xml version="1.0" encoding="UTF-8" standalone="no"?>
<svg width="512px" height="266px" viewBox="0 0 512 266" version="1.1" xmlns="http://www.w3.org/2000/svg" xmlns:xlink="http://www.w3.org/1999/xlink" preserveAspectRatio="xMidYMid">
	<g>
		<path d="M7.5326226,14.6285714 L14.3010661,7.86012793 C24.6720682,-2.40170576 41.593177,-1.7466951 51.0908316,9.2793177 L144.757356,118.447761 C152.944989,127.945416 152.835821,142.028145 144.539019,151.416631 L51.2,257.200853 C41.593177,268.008529 24.8904051,268.554371 14.6285714,258.292537 L7.86012793,251.524094 C-1.31002132,242.353945 -1.96503198,227.725373 6.33176972,217.681876 L62.2260128,150.652452 C69.8678038,141.482303 69.9769723,128.272921 62.5535181,118.884435 L5.78592751,47.9249467 C-2.29253731,38.0997868 -1.52835821,23.6895522 7.5326226,14.6285714 L7.5326226,14.6285714 Z" fill="#92D13D"></path>
		<path d="M62.1168443,150.870789 L6.22260128,217.900213 C-2.07420043,227.834542 -1.41918977,242.572281 7.75095949,251.742431 L14.519403,258.510874 C24.7812367,268.772708 41.4840085,268.226866 51.0908316,257.41919 L71.2869936,234.493817 C78.9287846,219.428571 83.1863539,202.398294 83.1863539,184.385501 C83.1863539,162.115139 76.6362473,141.482303 65.5010661,124.12452 C69.649467,132.639659 68.5577825,143.228998 62.1168443,150.870789 L62.1168443,150.870789 Z" fill="#49691F"></path>
		<path d="M192.791471,214.515991 L171.066951,214.515991 L171.066951,88.2081023 L192.791471,88.2081023 L192.791471,101.417484 C195.848188,92.5748401 206.8742,86.2430704 221.939446,86.2430704 C234.821322,86.2430704 245.628998,90.828145 254.362473,99.9982942 C263.205117,109.059275 267.571855,120.303625 267.571855,133.840512 C267.571855,147.377399 263.205117,158.621748 254.362473,167.901066 C245.628998,176.962047 234.821322,181.437953 221.939446,181.437953 C206.8742,181.437953 195.848188,175.106183 192.791471,166.263539 L192.791471,214.515991 L192.791471,214.515991 Z M199.123241,113.971855 C193.883156,119.21194 191.153945,125.980384 191.153945,133.94968 C191.153945,141.918977 193.883156,148.578252 199.123241,153.927505 C204.581663,159.167591 211.240938,161.896802 219.101066,161.896802 C226.961194,161.896802 233.183795,159.167591 238.314712,153.927505 C243.554797,148.68742 246.065672,141.918977 246.065672,133.94968 C246.065672,125.980384 243.554797,119.321109 238.314712,113.971855 C233.292964,108.73177 226.852026,106.002559 219.101066,106.002559 C211.350107,106.002559 204.581663,108.73177 199.123241,113.971855 L199.123241,113.971855 Z M275.104478,53.2742004 L296.828998,53.2742004 L296.828998,149.669936 C296.828998,158.51258 299.776546,162.333475 307.745842,162.333475 C310.256716,162.333475 312.440085,162.115139 314.295949,161.569296 L314.295949,181.001279 C311.785075,181.765458 308.291684,182.092964 303.924947,182.092964 C284.711301,182.092964 275.104478,172.267804 275.104478,152.508316 L275.104478,53.2742004 L275.104478,53.2742004 Z M387.87548,101.417484 L387.87548,88.2081023 L409.6,88.2081023 L409.6,151.962473 C409.6,159.713433 411.455864,162.660981 416.259275,162.660981 C417.569296,162.660981 419.206823,162.442644 420.84435,162.333475 L420.84435,179.909595 C418.442644,180.782942 414.840085,181.328785 410.145842,181.328785 C404.905757,181.328785 400.757356,180.455437 397.482303,178.381237 C393.44307,175.652026 390.932196,172.049467 390.058849,167.355224 C383.727079,176.962047 373.246908,181.65629 358.727505,181.65629 C345.845629,181.65629 335.037953,177.180384 326.086141,167.901066 C317.352665,158.621748 312.985928,147.377399 312.985928,133.840512 C312.985928,120.303625 317.352665,109.059275 326.086141,99.9982942 C334.928785,90.7189765 345.845629,86.2430704 358.727505,86.2430704 C373.356077,86.2430704 384.38209,92.793177 387.87548,101.417484 L387.87548,101.417484 Z M381.325373,153.818337 C386.783795,148.578252 389.513006,141.809808 389.513006,133.840512 C389.513006,125.871215 386.783795,119.21194 381.325373,113.862687 C376.085288,108.622601 369.316844,105.89339 361.565885,105.89339 C353.814925,105.89339 347.483156,108.622601 342.133902,113.862687 C337.112154,119.102772 334.492111,125.871215 334.492111,133.840512 C334.492111,141.809808 337.002985,148.469083 342.133902,153.818337 C347.373987,159.058422 353.705757,161.787633 361.565885,161.787633 C369.426013,161.787633 376.085288,159.058422 381.325373,153.818337 L381.325373,153.818337 Z M428.376972,197.81322 C431.106183,198.686567 434.490405,199.232409 438.529638,199.232409 C442.023028,199.232409 444.533902,198.46823 446.498934,197.267377 C448.463966,196.066525 450.319829,193.228145 451.739019,189.516418 L454.140725,182.966311 L415.93177,88.2081023 L437.765458,88.2081023 L464.620896,157.09339 L489.838806,88.2081023 L511.781663,88.2081023 L470.843497,194.428998 C468.114286,201.524947 464.839232,206.983369 461.018337,210.695096 C455.559915,215.716844 448.354797,218.336887 439.07548,218.336887 C435.036247,218.336887 431.433689,217.791045 428.376972,216.917697 L428.376972,197.81322 L428.376972,197.81322 Z" fill="#49691F"></path>
	</g>
</svg>
